Sources/FrostedUI/Resources/Icons.xcassets/dice20.imageset/dice-20.svg

<svg width="20" height="20" viewBox="0 0 20 20" fill="none" xmlns="http://www.w3.org/2000/svg" data-fui-icon="true">
  <path
    d="M2.92898 2.92893C3.63554 2.22237 4.59383 1.82549 5.59306 1.82546H14.407C15.4063 1.82549 16.3646 2.22237 17.0711 2.92893C17.7777 3.63549 18.1746 4.59379 18.1746 5.59301V14.407C18.1746 15.4062 17.7777 16.3645 17.0711 17.0711C16.3646 17.7776 15.4063 18.1745 14.407 18.1745H5.59306C4.59383 18.1745 3.63554 17.7776 2.92898 17.0711C2.22242 16.3645 1.82554 15.4062 1.8255 14.407V5.59301C1.82554 4.59379 2.22242 3.63549 2.92898 2.92893ZM3.98964 3.98959C3.56438 4.41485 3.32538 4.99161 3.32534 5.59301V14.407C3.32538 15.0084 3.56438 15.5851 3.98964 16.0104C4.41489 16.4357 4.99166 16.6747 5.59306 16.6747H14.407C15.0084 16.6747 15.5852 16.4357 16.0105 16.0104C16.4357 15.5852 16.6747 15.0084 16.6747 14.407V5.59301C16.6747 4.99161 16.4357 4.41485 16.0105 3.98959C15.5852 3.56434 15.0084 3.32533 14.407 3.3253H5.59306C4.99166 3.32533 4.4149 3.56433 3.98964 3.98959ZM12.8285 12.8284C13.219 12.4379 13.8522 12.4379 14.2427 12.8284C14.6332 13.219 14.6332 13.8521 14.2427 14.2426C13.8522 14.6332 13.219 14.6332 12.8285 14.2426C12.4379 13.8521 12.4379 13.219 12.8285 12.8284ZM5.7574 12.8284C6.14793 12.4379 6.78109 12.4379 7.17162 12.8284C7.56214 13.219 7.56214 13.8521 7.17162 14.2426C6.78109 14.6332 6.14793 14.6332 5.7574 14.2426C5.36688 13.8521 5.36688 13.219 5.7574 12.8284ZM9.29294 9.29289C9.68346 8.90237 10.3166 8.90237 10.7072 9.29289C11.0977 9.68342 11.0977 10.3166 10.7072 10.7071C10.3166 11.0976 9.68346 11.0976 9.29294 10.7071C8.90241 10.3166 8.90241 9.68342 9.29294 9.29289ZM12.8285 5.75736C13.219 5.36684 13.8522 5.36684 14.2427 5.75736C14.6332 6.14788 14.6332 6.78105 14.2427 7.17157C13.8522 7.5621 13.219 7.5621 12.8285 7.17157C12.4379 6.78105 12.4379 6.14788 12.8285 5.75736ZM5.7574 5.75736C6.14793 5.36684 6.78109 5.36684 7.17162 5.75736C7.56214 6.14788 7.56214 6.78105 7.17162 7.17157C6.78109 7.5621 6.14793 7.5621 5.7574 7.17157C5.36688 6.78105 5.36688 6.14788 5.7574 5.75736Z"
    fill="currentColor"
  />
</svg>

<svg xmlns="http://www.w3.org/2000/svg" width="20" height="20" fill="none" data-fui-icon="true" viewBox="0 0 20 20"><path fill="currentColor" d="M2.929 2.929a3.77 3.77 0 0 1 2.664-1.104h8.814a3.767 3.767 0 0 1 3.768 3.768v8.814a3.77 3.77 0 0 1-3.768 3.767H5.593a3.77 3.77 0 0 1-3.767-3.767V5.593c0-1 .396-1.958 1.103-2.664m1.06 1.06a2.27 2.27 0 0 0-.664 1.604v8.814a2.27 2.27 0 0 0 2.268 2.268h8.814a2.27 2.27 0 0 0 2.268-2.268V5.593a2.27 2.27 0 0 0-2.268-2.268H5.593c-.601 0-1.178.24-1.603.665m8.84 8.84a1 1 0 1 1 1.414 1.414 1 1 0 0 1-1.415-1.415m-7.072 0a1 1 0 1 1 1.415 1.414 1 1 0 0 1-1.415-1.415m3.536-3.536a1 1 0 1 1 1.414 1.414 1 1 0 0 1-1.414-1.414m3.536-3.536a1 1 0 1 1 1.414 1.415 1 1 0 0 1-1.415-1.415m-7.072 0a1 1 0 1 1 1.415 1.415 1 1 0 0 1-1.415-1.415"/></svg>
